X:1
T:La Jolla, 87.87 D
T:La Jolla, 87.87 D
T:C. M. Barnes, 1896
T:Public Domain Courtesy of the Cyber Hymnal™
C:C. M. Barnes, 1896
Z:Public Domain
Z:Courtesy of the Cyber Hymnal™
%%score 1 ( 2 3 )
L:1/8
Q:1/4=108
M:4/4
K:Ab
V:1 treble 
V:2 bass 
V:3 bass 
V:1
 [EA]2 [CA]2 [CA]3 [EB] | [FA]2 [DF]2 [CE]2 [CA]2 | [EB]2 [EB]2 [EB]3 [Ed] | [Ec]2 [DB]2 [CA]4 | %4
 [EA]2 [CA]2 [CA]3 [EB] | [FA]2 [DF]2 [CE]2 [CA]2 | [EB]2 [EB]2 [EB]3 [Ed] | [Ec]2 [DB]2 [CA]4 | %8
 [Ae]2 [Af]2 [Ae]3 [Ec] | [Ed]2 [EB]2 [Ec]2 [EB]2 | [EB]2 [Ec]2 [EB]3 [EB] | [Ec]2 [A=d]2 [Ge]4 | %12
 [EA]2 [CA]2 [CA]3 [EB] | [FA]2 [DF]2 [CE]2 [CA]2 | [EB]2 [EB]2 [EB]3 [Ed] | [Ec]2 [DB]2 [CA]4 |] %16
V:2
 [A,,C]2 [A,,A,]2 [A,,E,]3 [C,A,] | [D,A,]2 [D,A,]2 [A,,A,]2 [A,,A,]2 | %2
 [E,G,]2 [E,G,]2 [E,G,]3 [E,B,] | [E,A,]2 [E,G,]2 [A,,A,]4 | [A,,C]2 [A,,A,]2 [A,,E,]3 [C,A,] | %5
 [D,A,]2 [D,A,]2 [A,,A,]2 [A,,A,]2 | [E,G,]2 [E,G,]2 [E,G,]3 [E,B,] | [E,A,]2 [E,G,]2 [A,,A,]4 | %8
 [A,C]2 [A,D]2 [A,C]3 A, | [E,B,]2 [E,G,]2 [E,A,]2 [E,G,]2 | [E,G,]2 [E,A,]2 [E,G,]3 [E,G,] | %11
 A,2 [F,B,]2 [E,B,]4 | [A,,C]2 [A,,A,]2 [A,,E,]3 [C,A,] | [D,A,]2 [D,A,]2 [A,,A,]2 [A,,A,]2 | %14
 [E,G,]2 [E,G,]2 [E,G,]3 [E,B,] | [E,A,]2 [E,G,]2 [A,,E,A,]4 |] %16
V:3
 x8 | x8 | x8 | x8 | x8 | x8 | x8 | x8 | x7 A, | x8 | x8 | A,2 x6 | x8 | x8 | x8 | x8 |] %16

